Numix-GalliumOS/24/devices/media-zip.svg

<?xml version="1.0" encoding="UTF-8" standalone="no"?>
<svg
   xmlns:dc="http://purl.org/dc/elements/1.1/"
   xmlns:cc="http://creativecommons.org/ns#"
   xmlns:rdf="http://www.w3.org/1999/02/22-rdf-syntax-ns#"
   xmlns:svg="http://www.w3.org/2000/svg"
   xmlns="http://www.w3.org/2000/svg"
   xmlns:sodipodi="http://sodipodi.sourceforge.net/DTD/sodipodi-0.dtd"
   xmlns:inkscape="http://www.inkscape.org/namespaces/inkscape"
   width="24"
   height="24"
   viewBox="0 0 24 24"
   id="svg1923"
   version="1.1"
   inkscape:version="0.91 r"
   sodipodi:docname="media-zip.svg">
  <metadata
     id="metadata1939">
    <rdf:RDF>
      <cc:Work
         rdf:about="">
        <dc:format>image/svg+xml</dc:format>
        <dc:type
           rdf:resource="http://purl.org/dc/dcmitype/StillImage" />
      </cc:Work>
    </rdf:RDF>
  </metadata>
  <defs
     id="defs1937" />
  <sodipodi:namedview
     pagecolor="#ffffff"
     bordercolor="#666666"
     borderopacity="1"
     objecttolerance="10"
     gridtolerance="10"
     guidetolerance="10"
     inkscape:pageopacity="0"
     inkscape:pageshadow="2"
     inkscape:window-width="640"
     inkscape:window-height="480"
     id="namedview1935" />
  <g
     style="fill:#909ea9"
     id="g1925">
    <path
       d="M 6.75 4 C 6.691406 4.011719 6.632812 4.03125 6.578125 4.0625 L 4.234375 5.515625 C 4.09375 5.605469 4 5.769531 4 5.9375 L 4 19.015625 C 4 19.277344 4.238281 19.515625 4.5 19.515625 L 6.34375 19.515625 C 6.351562 19.773438 6.585938 20 6.84375 20 L 17.15625 20 C 17.414062 20 17.648438 19.773438 17.65625 19.515625 L 19.5 19.515625 C 19.761719 19.515625 20 19.277344 20 19.015625 L 20 5.9375 C 20 5.769531 19.90625 5.605469 19.765625 5.515625 L 17.421875 4.0625 C 17.339844 4.015625 17.25 3.996094 17.15625 4 L 6.84375 4 C 6.8125 3.996094 6.78125 3.996094 6.75 4 Z M 7 5 L 17.5 5 L 19 6 L 19 18.5 L 17.5 18.5 L 17.5 13.5 L 6.5 13.5 L 6.5 18.5 L 5 18.5 L 5 6 Z M 7 15.5 L 17 15.5 L 17 16 L 7 16 Z M 7 17.5 L 17 17.5 L 17 18 L 7 18 Z "
       id="path1927" />
    <path
       d="M 11.25 4.5 L 9.5 4.5 L 9.5 6 L 16.5 6 L 16.5 4.5 Z "
       id="path1929" />
    <path
       d="M 7 12.5 L 7 9 L 14 9 L 14 12.5 Z "
       id="path1931" />
    <path
       d="M 15 9 L 15 12.5 L 17 12.5 L 17 9 Z "
       id="path1933" />
  </g>
</svg>

<svg xmlns="http://www.w3.org/2000/svg" viewBox="0 0 24 24">
 <g style="fill:#909ea9">
  <path d="m 6.75 4 c -0.059 0.012 -0.117 0.031 -0.172 0.063 l -2.344 1.453 c -0.141 0.09 -0.234 0.254 -0.234 0.422 l 0 13.08 c 0 0.262 0.238 0.5 0.5 0.5 l 1.844 0 c 0.008 0.258 0.242 0.484 0.5 0.484 l 10.313 0 c 0.258 0 0.492 -0.227 0.5 -0.484 l 1.844 0 c 0.262 0 0.5 -0.238 0.5 -0.5 l 0 -13.08 c 0 -0.168 -0.094 -0.332 -0.234 -0.422 l -2.344 -1.453 c -0.082 -0.047 -0.172 -0.066 -0.266 -0.063 l -10.313 0 c -0.031 -0.004 -0.063 -0.004 -0.094 0 m 0.25 1 l 10.5 0 l 1.5 1 l 0 12.5 l -1.5 0 l 0 -5 l -11 0 l 0 5 l -1.5 0 l 0 -12.5 m 2 9.5 l 10 0 l 0 0.5 l -10 0 m 0 1.5 l 10 0 l 0 0.5 l -10 0 Z"/>
  <path d="m 11.25 4.5 l -1.75 0 l 0 1.5 l 7 0 l 0 -1.5 Z"/>
  <path d="m 7 12.5 l 0 -3.5 l 7 0 l 0 3.5 Z"/>
  <path d="m 15 9 l 0 3.5 l 2 0 l 0 -3.5 Z"/>
 </g>
</svg>
